X: 48
T: White Fish up the rapids
M:4/4
R:reel
L:1/8
Z:added by alf0@rogers.com - http://members.rogers.com/alf0
K:Bb
|:"Bb"B2FB dBFD|"Eb"E2GB eBGE|"Bb"FGFE DFBd|"F7"cBAG FGAF|
"Bb"B2FB dBFD|"Eb"E2GB eBGE|"Bb"FGFE "Gm"DFBd|"F7"cBAc "Bb"B2F2:|
|:"Bb"Bcde fBAB|"Gm"gB"F7"aB "Bb"bBAB|"Gm"bBgB "Bb"fBAB|"Cm"cecA "F7"BAGA|
"Bb"Bcde fBAB|"Gm"gB"F7"aB "Bb"bBAB|"Cm"FGFE "F7"DFBd|cBAc "Bb"B2F2:|
